X: 1
T: The Provost Wynd
T: 8x32R 3C (Goldring, 24 Graded)
P: Ray's Reel
C: Muriel Johnstone, A Score and More
C: arr. T. Traub 7-2-2011
M: 2/4
L: 1/8
K: D
|:A | "D"d>f "A"e>f|"D"dA/G/ F/G/A|"G"BG/B/ "D"AF|"Em"G/F/E/D/ "A"EA|"D"d>f "F#7"e>f|"Bm"dA/G/ "D7"F/G/A/F/|"G"G/A/B/G/ "A7"A/g/e/c/|"D"d2 d :|
g|"D"f>g aA|"G"B2 "D"Af|"Em"g>a "E7"bd|"A"cA Ag|"D"f>g aA|"G"B2 "D"Ad|"Em"B/c/d/B/ "A"A/g/e/c/|"D"d2 "A"dg||
"D"f>g aA|"G"B2 "D"Af|"Em"g/f/g/a/ "E7"b/g/e/d/|"A"cA Af/g/|"D"a/g/f/a/ "A"g/f/e/g/|"D"f/e/d/f/ "A"eA|"Em"B/c/d/B/ "A"A/g/e/c/|"D"d2 d |]

